projects/flag-game/flags/Eritrea.svg

<svg viewBox="0 0 1000 500" xmlns="http://www.w3.org/2000/svg"><path d="m0 0h1000v500h-1000z" fill="#ea0437"/><g fill-rule="evenodd"><path d="m0 500h1000v-250zm0 0" fill="#4189dd"/><path d="m0 0h1000v250zm0 0" fill="#12ad2b"/><path d="m230.25 369.160156c-10.8125 2.988282-17.007812 11.371094-16.851562 19.289063l53.210937-.214844c.480469-8.503906-6.515625-16.371094-17.164063-19.464844 52.097657-1.078125 97.355469-20.589843 105.578126-33.109375-8.136719-3.535156-17.546876 2.148438-24.257813.839844 15.929687-7.359375 63.648437-38.246094 55.890625-71.359375-6.03125 18.390625-24.296875 33.609375-32.082031 37.695313 17.828125-27.070313 42.167969-55.25 21.050781-77.070313 1.066406 12.648437-8.039062 26.566406-12.054688 27.613281 10.335938-28.597656 20.203126-64.507812-2.199218-88.179687 2.941406 8.554687 1.753906 32.691406-2.296875 33.777343-1.246094-19.449218-4.566407-60.355468-25.050781-59.773437 6.507812 5.792969 9.355468 21.597656 9.496093 37.5625-4.667969-10.9375-9.96875-19.171875-21.316406-27.246094-9.175781-17.601562-25.507813-32.1875-41.84375-42.632812 1.839844 12.8125 3.355469 22.917969 21.242187 36.210937-9.328124-.582031-18.652343-18.265625-28.617187-18.757812-7.929687-.378906-14.152344 7.1875-27.109375 2.832031 1.433594 4.277344 7.480469 6.171875 8.753906 9.335937-2.773437 1.914063-9.359375-.300781-14.839844-3.152343 7.535157 10.261719 19.210938 16.296875 29.121094 14.261719 11.789063-2.265626 24.425782-1.070313 36.476563 5.792968-3.078125 1.578125-15.058594 1.570313-22.75.605469 6.992187 7.078125 11.679687 11.765625 23.832031 11.6875 10.855469-.066406 16.542969-5.789063 19.332031-2.246094 6.808594 8.066407 11.390625 16.132813 17.085938 25.628907-12.578125 1.386718-8.789063-14.226563-22.800781-22.214844-7.871094 16.292968 9.054687 35.605468 20.578124 43.636718.15625 12.246094 1.949219 22.488282 7.136719 31.816407 3.507813 6.570312 8.035157 13.300781 6.324219 28.140625-6.898438-5.023438-13.636719-21.96875-11.15625-35.417969-8.632812 2.355469-12.007812 17.535156-7.941406 25.179687 3.039062 5.820313 5.070312 16.949219 1.5625 21.925782-3.417969 4.640625-3.773438 4.117187-3.730469 14.070312.125 5.953125-3.199219 12.996094-8.621094 17.910156 1.132813-4.195312 2.421875-11.417968 1.167969-15.929687-4.285156 7.265625-15.023438 14.785156-18.410156 22.59375-3.324219 7.832031-4.164063 21.390625-20.25 24.519531-20.679688 4.101563-27.820313 7.691406-41.132813 13.136719-1.476562-10.109375 2.945313-31.191406 11.398438-29.992187 8.257812 1.46875 33.28125-8.621094 24.324219-29.707032-1.765626 6.644532-7.664063 13.132813-14.039063 13.417969 6.886719-8.9375 19.183594-18.191406 13.195313-33.171875-3.328126 6.367188-8.5625 14.007812-16.503907 18.308594 8.511719-16.3125.992188-21.191406-9.117187-7.757813-3.816406 5.179688-6.121094 15.566407-8.546875 28.753907-3.96875-10.726563-3.707031-24.84375-8.410157-36.3125-4.917968-12.398438 6.519532-15.667969 11.90625-14.675782 13.171876 3.519532 35.195313 3.511719 33.558594-18.253906-5.695312 7.363281-15.667968 9.640625-26.449218 6.988281 12.105468-8.839843 21.660156-25.464843 8.171874-34.148437-.449218 9.210937-7.574218 19.527344-17.078124 24.285156-2.226563-7.769531-2.226563-16.011719-.320313-25.050781-5.3125 5.59375-9.1875 17.222656-12.273437 30.445312-.230469-13.070312 2.242187-22.484375 4.074218-29.515625 2.777344-10.269531 9.6875-3.589844 20.261719-2.832031 10.179687.582031 24.203125-5.050781 21.523437-18.859375-3.476562 5.464844-10.617187 7.589844-17.90625 7.011719 8.78125-5.316407 24.074219-14.769531 15.683594-29.304688-3.519531 5.5-4.664062 10.214844-14.863281 11.902344 2.671875-6.148437 3.117187-14.832031 11.03125-18.277344-14.121094-2.8125-22.207031 6.457031-26.316406 20.972657-1.667969-10.0625-3.648438-13.769532-4.046875-21.128907 7.632812-8.480469 8.433594-25.066406-8.09375-28.773437-.980469 8.554687-.6875 10.589844 1.191406 17.558594-7.757812-4.609376-18.691406-7.152344-25.972656-.632813 4.933594 5.320313 12.5625 10.007813 24.332031 4.203125-2.777344 9.089844-10.007813 7.535156-19.941406 4.066406 6.074219 11.40625 13.734375 13.433594 22.191406 12.121094 4.425781 11.667969 4.621094 20.542969-8.3125 37.539062.59375-10.5625-.15625-18.433593-8.550781-26.972656-7.195313-7.046875-13.039063.296875-1.796875 15.960938-6.816407-5.023438-14.535157-15.214844-16.863281-25.40625-2.246094 12.589844-.222657 27.425781 6.75 35.742187-3.296876 3.527344-7.046876-.371093-12.589844-8.988281 2.097656 27.578125 13.863281 32.894531 29.675781 26.746094.449219 15.140625.449219 29.152344 1.347656 47.4375-9.21875-13.261719-20.910156-23.152344-27.429687-25.625-2.019532 7.417968 5.621094 17.082031 9.894531 22.476562-6.519531-1.347656-20.683594-12.140625-20.683594-12.140625-1.425781 12.292969 14.464844 23.683594 24.730469 28.777344-12.066406-.523437-17.386719-5.09375-25.179688-12.589844.152344 34.097657 36.945313 28.175781 43.839844 22.929688.894532 16.789062 2.179688 36.191406 3.078125 52.980469-10.398437-1.816407-9.585937-4.945313-18.484375-5.765626-24.699218-.964843-44.292968-29.65625-50.78125-50.757812-1.863281 3.472656-.386718 7.109375-2.089844 11.371094-4.011718-10.355469-9.132812-23.734375-16-29.960938 1.746094 6.039063 1.933594 12.175782 1.320313 23.460938-2.355469-7.3125-4.550781-9.554688-4.707031-18.136719.152344-6.59375 6.359375-11.453125 6.011718-20.722656-.253906-6.769531-6.425781-21.4375-7.335937-32.789063-2.988281 11.683594-4.863281 24.003906-9.441406 31.238282 2.277343-12.480469 1.546875-21.09375 5.394531-29.492188 4.449219-8.839844 8.230469-16.738281 5.265625-25.664062-2.839844 3.449218-1.863281 6.582031-8.992187 14.957031-1.550782-9.105469 9.21875-23.6875 19.675781-29.546875 7.367187-3.882813 16.664062-17.773438 10.609375-27.296875-6.933594 4.976562-10.042969 11.707031-19.839844 23.199219 6.988281-27.300782 25.132812-34.449219 46.859375-34.542969 4.8125-.019531 14.503906-1.757813 17.222656-8.121094-6.121093 2.363281-13.363281 2.664063-19.808593 1.375 4.691406-6.882813 14.570312-5.988281 23.769531-6.027344 7.222656-.035156 18.492187-1.015625 23.046875-11.292969-8.808594 3.8125-22.539063 4.605469-31.1875 1.902344 13.75-7.125 35.292968-7.890625 46.339844-17.242187-12.59375-9.398438-44.101563 2.1875-64.003907 15.839843 5.558594-5.085937 14.355469-14.109374 19.203125-21.394531-10.882812-5.222656-38.414062 25.277344-47.894531 43.398438-9.007813 5.085937-12.613281 13.0625-16.109375 18.628906 4.800781-16.222656 5.308594-27.992187 9.3125-41.34375-30.878906 10.628906-18.042969 67.679687-24.761719 81.328125.789063-15.070312.152344-34.429688-6.054687-44.410156-9.507813 7.257812-10.277344 49.960937-1.347656 85.511718-3.222657-9.515624-9.3125-18.398437-11.257813-29.972656-14.078125 25.667969 8.246094 55.953125 26.917969 79.875-14.058594-7.320312-27.953125-23.066406-37.082032-36.265625 2.519532 45.949219 50.5 55.496094 57.949219 66.785157-10.109375-4.703126-29.4375-14.019532-37.640625-4.257813 13.355469 3.082031 24.003906 6.644531 32.585938 12.269531 12.453125 15.546875 36.03125 22.347656 77.097656 24.0625zm0 0" fill="#ffc726"/></g></svg>

<?xml version="1.0" encoding="UTF-8"?>
<svg xmlns="http://www.w3.org/2000/svg" xmlns:xlink="http://www.w3.org/1999/xlink" viewBox="0 0 1000 500" version="1.1">
<g id="surface404">
<rect x="0" y="0" width="1000" height="500" style="fill:rgb(91.763306%,1.568604%,21.568298%);fill-opacity:1;stroke:none;"/>
<path style=" stroke:none;fill-rule:evenodd;fill:rgb(25.489807%,53.72467%,86.665344%);fill-opacity:1;" d="M 0 500 L 1000 500 L 1000 250 Z M 0 500 "/>
<path style=" stroke:none;fill-rule:evenodd;fill:rgb(7.058716%,67.842102%,16.862488%);fill-opacity:1;" d="M 0 0 L 1000 0 L 1000 250 Z M 0 0 "/>
<path style=" stroke:none;fill-rule:evenodd;fill:rgb(99.998474%,78.038025%,14.901733%);fill-opacity:1;" d="M 230.25 369.160156 C 219.4375 372.148438 213.242188 380.53125 213.398438 388.449219 L 266.609375 388.234375 C 267.089844 379.730469 260.09375 371.863281 249.445312 368.769531 C 301.542969 367.691406 346.800781 348.179688 355.023438 335.660156 C 346.886719 332.125 337.476562 337.808594 330.765625 336.5 C 346.695312 329.140625 394.414062 298.253906 386.65625 265.140625 C 380.625 283.53125 362.359375 298.75 354.574219 302.835938 C 372.402344 275.765625 396.742188 247.585938 375.625 225.765625 C 376.691406 238.414062 367.585938 252.332031 363.570312 253.378906 C 373.90625 224.78125 383.773438 188.871094 361.371094 165.199219 C 364.3125 173.753906 363.125 197.890625 359.074219 198.976562 C 357.828125 179.527344 354.507812 138.621094 334.023438 139.203125 C 340.53125 144.996094 343.378906 160.800781 343.519531 176.765625 C 338.851562 165.828125 333.550781 157.59375 322.203125 149.519531 C 313.027344 131.917969 296.695312 117.332031 280.359375 106.886719 C 282.199219 119.699219 283.714844 129.804688 301.601562 143.097656 C 292.273438 142.515625 282.949219 124.832031 272.984375 124.339844 C 265.054688 123.960938 258.832031 131.527344 245.875 127.171875 C 247.308594 131.449219 253.355469 133.34375 254.628906 136.507812 C 251.855469 138.421875 245.269531 136.207031 239.789062 133.355469 C 247.324219 143.617188 259 149.652344 268.910156 147.617188 C 280.699219 145.351562 293.335938 146.546875 305.386719 153.410156 C 302.308594 154.988281 290.328125 154.980469 282.636719 154.015625 C 289.628906 161.09375 294.316406 165.78125 306.46875 165.703125 C 317.324219 165.636719 323.011719 159.914062 325.800781 163.457031 C 332.609375 171.523438 337.191406 179.589844 342.886719 189.085938 C 330.308594 190.472656 334.097656 174.859375 320.085938 166.871094 C 312.214844 183.164062 329.140625 202.476562 340.664062 210.507812 C 340.820312 222.753906 342.613281 232.996094 347.800781 242.324219 C 351.308594 248.894531 355.835938 255.625 354.125 270.464844 C 347.226562 265.441406 340.488281 248.496094 342.96875 235.046875 C 334.335938 237.402344 330.960938 252.582031 335.027344 260.226562 C 338.066406 266.046875 340.097656 277.175781 336.589844 282.152344 C 333.171875 286.792969 332.816406 286.269531 332.859375 296.222656 C 332.984375 302.175781 329.660156 309.21875 324.238281 314.132812 C 325.371094 309.9375 326.660156 302.714844 325.40625 298.203125 C 321.121094 305.46875 310.382812 312.988281 306.996094 320.796875 C 303.671875 328.628906 302.832031 342.1875 286.746094 345.316406 C 266.066406 349.417969 258.925781 353.007812 245.613281 358.453125 C 244.136719 348.34375 248.558594 327.261719 257.011719 328.460938 C 265.269531 329.929688 290.292969 319.839844 281.335938 298.753906 C 279.570312 305.398438 273.671875 311.886719 267.296875 312.171875 C 274.183594 303.234375 286.480469 293.980469 280.492188 279 C 277.164062 285.367188 271.929688 293.007812 263.988281 297.308594 C 272.5 280.996094 264.980469 276.117188 254.871094 289.550781 C 251.054688 294.730469 248.75 305.117188 246.324219 318.304688 C 242.355469 307.578125 242.617188 293.460938 237.914062 281.992188 C 232.996094 269.59375 244.433594 266.324219 249.820312 267.316406 C 262.992188 270.835938 285.015625 270.828125 283.378906 249.0625 C 277.683594 256.425781 267.710938 258.703125 256.929688 256.050781 C 269.035156 247.210938 278.589844 230.585938 265.101562 221.902344 C 264.652344 231.113281 257.527344 241.429688 248.023438 246.1875 C 245.796875 238.417969 245.796875 230.175781 247.703125 221.136719 C 242.390625 226.730469 238.515625 238.359375 235.429688 251.582031 C 235.199219 238.511719 237.671875 229.097656 239.503906 222.066406 C 242.28125 211.796875 249.191406 218.476562 259.765625 219.234375 C 269.945312 219.816406 283.96875 214.183594 281.289062 200.375 C 277.8125 205.839844 270.671875 207.964844 263.382812 207.386719 C 272.164062 202.070312 287.457031 192.617188 279.066406 178.082031 C 275.546875 183.582031 274.402344 188.296875 264.203125 189.984375 C 266.875 183.835938 267.320312 175.152344 275.234375 171.707031 C 261.113281 168.894531 253.027344 178.164062 248.917969 192.679688 C 247.25 182.617188 245.269531 178.910156 244.871094 171.550781 C 252.503906 163.070312 253.304688 146.484375 236.777344 142.777344 C 235.796875 151.332031 236.089844 153.367188 237.96875 160.335938 C 230.210938 155.726562 219.277344 153.183594 211.996094 159.703125 C 216.929688 165.023438 224.558594 169.710938 236.328125 163.90625 C 233.550781 172.996094 226.320312 171.441406 216.386719 167.972656 C 222.460938 179.378906 230.121094 181.40625 238.578125 180.09375 C 243.003906 191.761719 243.199219 200.636719 230.265625 217.632812 C 230.859375 207.070312 230.109375 199.199219 221.714844 190.660156 C 214.519531 183.613281 208.675781 190.957031 219.917969 206.621094 C 213.101562 201.597656 205.382812 191.40625 203.054688 181.214844 C 200.808594 193.804688 202.832031 208.640625 209.804688 216.957031 C 206.507812 220.484375 202.757812 216.585938 197.214844 207.96875 C 199.3125 235.546875 211.078125 240.863281 226.890625 234.714844 C 227.339844 249.855469 227.339844 263.867188 228.238281 282.152344 C 219.019531 268.890625 207.328125 259 200.808594 256.527344 C 198.789062 263.945312 206.429688 273.609375 210.703125 279.003906 C 204.183594 277.65625 190.019531 266.863281 190.019531 266.863281 C 188.59375 279.15625 204.484375 290.546875 214.75 295.640625 C 202.683594 295.117188 197.363281 290.546875 189.570312 283.050781 C 189.722656 317.148438 226.515625 311.226562 233.410156 305.980469 C 234.304688 322.769531 235.589844 342.171875 236.488281 358.960938 C 226.089844 357.144531 226.902344 354.015625 218.003906 353.195312 C 193.304688 352.230469 173.710938 323.539062 167.222656 302.4375 C 165.359375 305.910156 166.835938 309.546875 165.132812 313.808594 C 161.121094 303.453125 156 290.074219 149.132812 283.847656 C 150.878906 289.886719 151.066406 296.023438 150.453125 307.308594 C 148.097656 299.996094 145.902344 297.753906 145.746094 289.171875 C 145.898438 282.578125 152.105469 277.71875 151.757812 268.449219 C 151.503906 261.679688 145.332031 247.011719 144.421875 235.660156 C 141.433594 247.34375 139.558594 259.664062 134.980469 266.898438 C 137.257812 254.417969 136.527344 245.804688 140.375 237.40625 C 144.824219 228.566406 148.605469 220.667969 145.640625 211.742188 C 142.800781 215.191406 143.777344 218.324219 136.648438 226.699219 C 135.097656 217.59375 145.867188 203.011719 156.324219 197.152344 C 163.691406 193.269531 172.988281 179.378906 166.933594 169.855469 C 160 174.832031 156.890625 181.5625 147.09375 193.054688 C 154.082031 165.753906 172.226562 158.605469 193.953125 158.511719 C 198.765625 158.492188 208.457031 156.753906 211.175781 150.390625 C 205.054688 152.753906 197.8125 153.054688 191.367188 151.765625 C 196.058594 144.882812 205.9375 145.777344 215.136719 145.738281 C 222.359375 145.703125 233.628906 144.722656 238.183594 134.445312 C 229.375 138.257812 215.644531 139.050781 206.996094 136.347656 C 220.746094 129.222656 242.289062 128.457031 253.335938 119.105469 C 240.742188 109.707031 209.234375 121.292969 189.332031 134.945312 C 194.890625 129.859375 203.6875 120.835938 208.535156 113.550781 C 197.652344 108.328125 170.121094 138.828125 160.640625 156.949219 C 151.632812 162.035156 148.027344 170.011719 144.53125 175.578125 C 149.332031 159.355469 149.839844 147.585938 153.84375 134.234375 C 122.964844 144.863281 135.800781 201.914062 129.082031 215.5625 C 129.871094 200.492188 129.234375 181.132812 123.027344 171.152344 C 113.519531 178.410156 112.75 221.113281 121.679688 256.664062 C 118.457031 247.148438 112.367188 238.265625 110.421875 226.691406 C 96.34375 252.359375 118.667969 282.644531 137.339844 306.566406 C 123.28125 299.246094 109.386719 283.5 100.257812 270.300781 C 102.777344 316.25 150.757812 325.796875 158.207031 337.085938 C 148.097656 332.382812 128.769531 323.066406 120.566406 332.828125 C 133.921875 335.910156 144.570312 339.472656 153.152344 345.097656 C 165.605469 360.644531 189.183594 367.445312 230.25 369.160156 Z M 230.25 369.160156 "/>
</g>
</svg>
